X: 13521
T: Flowers Of Red Hill, The
R: reel
M: 4/4
K: Adorian
|:e~A3 gAfA|e~A3 eAdA|e~A3 ~e3f|gedB GABd:|
e~a3 B~a3|eaag edBd|e~a3 B~a3|edef gfed|
e~a3 B~a3|eaaf g4|afge fdef|g2 fg ed Bd||

